X:1
T: The Brig o' Balater
C:
R:Strathspey
Q: 128
K:C
M:4/4
L:1/16
|:E2|C3E G3A c3G Aa3|gc3 g3e d4 d3e|C3E G3A c3G Aa3|gc3 g3e c4 c2E2|
C3E G3A c3G Aa3|gc3 g3e d4 d3e|C3E G3A c3G Aa3|gc3 g3e c4 c2ef|
gc3 e3c gc3 f3a|gc3 g3e d4 d3e|gc3 e3c gc3 f3a|gc3 e3d c4 c2ef|
gc3 e3c gc3 f3a|gc3 g3e d4 d3e|C3E G3A c3G Aa3|gc3 g3e c4 c2:|
